img/logos-img-01.svg

<svg width="149" height="50" viewBox="0 0 149 50" fill="none" xmlns="http://www.w3.org/2000/svg">
<path d="M33.642 46.9481L42.5587 47.1359C39.4856 46.0561 36.5056 44.7416 33.642 43.1923V46.9481ZM47.0752 45.704V46.9481L42.5587 47.1359C51.0563 50.0702 58.8323 50.4693 64.606 48.8261C59.973 48.873 53.9432 48.2157 47.0752 45.704ZM142.272 18.6618C145.974 18.6618 149.001 15.6336 149.001 11.8777C149.001 8.12185 145.997 6.12654 142.272 6.12654C138.571 6.12654 135.544 8.14532 135.544 11.8777C135.544 15.6101 138.547 18.6618 142.272 18.6618ZM135.521 46.9481H149.001V21.0092H135.521V46.9481ZM118.362 46.9481H131.842V1.10306L118.362 7.51151V46.9481ZM111.145 18.92C106.908 14.6477 99.4115 14.9059 99.4115 14.9059C99.4115 14.9059 91.8916 14.6477 87.6777 18.92C83.4405 23.1923 83.7665 26.8777 83.7665 31.2674C83.7665 35.6571 83.4405 39.319 87.6777 43.5913C91.9149 47.8636 99.4115 47.6054 99.4115 47.6054C99.4115 47.6054 106.931 47.8636 111.145 43.5913C115.382 39.319 115.056 35.6571 115.056 31.2674C115.033 26.8542 115.359 23.1688 111.145 18.92ZM101.879 35.7979C101.879 36.643 101.46 38.7322 99.3882 38.7322C97.3162 38.7322 96.8971 36.643 96.8971 35.7979V26.3143C96.8971 24.2721 98.5966 23.7556 99.3882 23.7556C100.18 23.7556 101.879 24.2486 101.879 26.3143V35.7979ZM77.1546 18.92C72.9174 14.6477 65.4209 14.9059 65.4209 14.9059C65.4209 14.9059 57.9243 14.6477 53.6871 18.92C53.2448 19.366 52.8257 19.8355 52.4532 20.3284C43.5598 13.3801 35.5743 9.41292 28.6831 5.98569V1.12654L23.4448 3.6148C10.7798 -1.573 2.72446 -0.657501 0.79212 3.63827C0.79212 3.63827 -5.00491 11.3378 15.1799 29.6477V46.9481H28.6598V40.2345C27.1465 39.2486 25.6332 38.1923 24.1432 37.042C20.6976 34.4129 17.7641 31.9716 15.2032 29.6711V22.3941C18.2531 25.8449 22.304 29.765 27.6354 34.2017L28.6831 35.0467V28.0514C28.6831 26.4317 29.0788 23.7791 31.1974 23.7791C33.316 23.7791 33.6652 25.3988 33.6652 27.3002V38.7322C37.8559 41.596 42.3491 43.92 47.0985 45.6805V23.6383C47.0985 19.2486 43.9788 14.8589 37.6463 14.8589C33.9679 14.8355 30.5456 16.7838 28.6831 19.9998V7.2533C38.4379 12.1594 48.216 18.1688 51.941 20.9387C49.5663 24.366 49.7759 27.535 49.7759 31.197C49.7759 35.5866 49.4499 39.2486 53.6871 43.5209C57.9243 47.7932 65.4209 47.535 65.4209 47.535C65.4209 47.535 72.9407 47.7932 77.1546 43.5209C81.3918 39.2486 81.0426 35.5866 81.0426 31.197C81.0426 26.8542 81.3918 23.1688 77.1546 18.92ZM15.1799 7.51151V22.3707C3.84196 9.57724 6.12353 4.53029 6.98493 3.80259C10.1279 1.12654 15.7154 1.92466 21.9781 4.29555L15.1799 7.51151ZM67.912 35.7979C67.912 36.643 67.4929 38.7322 65.4209 38.7322C63.3488 38.7322 62.9298 36.643 62.9298 35.7979V26.3143C62.9298 24.2721 64.6293 23.7556 65.4209 23.7556C66.2124 23.7556 67.912 24.2486 67.912 26.3143V35.7979Z" fill="#737373"/>
</svg>

<svg width="149" height="50" fill="none" xmlns="http://www.w3.org/2000/svg"><path d="m33.642 46.948 8.917.188a61.73 61.73 0 0 1-8.917-3.944v3.756Zm13.433-1.244v1.244l-4.516.188c8.497 2.934 16.273 3.333 22.047 1.69-4.633.047-10.663-.61-17.53-3.122Zm95.197-27.042c3.702 0 6.729-3.028 6.729-6.784s-3.004-5.751-6.729-5.751c-3.701 0-6.728 2.018-6.728 5.75 0 3.733 3.003 6.785 6.728 6.785Zm-6.751 28.286h13.48V21.01h-13.48v25.94Zm-17.159 0h13.48V1.103l-13.48 6.409v39.436Zm-7.217-28.028c-4.237-4.272-11.733-4.014-11.733-4.014s-7.52-.258-11.734 4.014c-4.237 4.272-3.912 7.958-3.912 12.347 0 4.39-.326 8.052 3.912 12.324 4.237 4.273 11.734 4.014 11.734 4.014s7.519.259 11.733-4.014c4.237-4.272 3.911-7.934 3.911-12.324-.023-4.413.303-8.098-3.911-12.347Zm-9.266 16.878c0 .845-.419 2.934-2.49 2.934-2.073 0-2.492-2.089-2.492-2.934v-9.484c0-2.042 1.7-2.558 2.491-2.558.792 0 2.491.493 2.491 2.558v9.484ZM77.155 18.92c-4.238-4.272-11.734-4.014-11.734-4.014s-7.497-.258-11.734 4.014c-.442.446-.861.915-1.234 1.408C43.56 13.38 35.574 9.413 28.683 5.986v-4.86l-5.238 2.489C10.78-1.573 2.725-.658.792 3.638c0 0-5.797 7.7 14.388 26.01v17.3h13.48v-6.714a69.062 69.062 0 0 1-4.517-3.192c-3.445-2.63-6.379-5.07-8.94-7.37v-7.278c3.05 3.45 7.101 7.371 12.432 11.808l1.048.845V28.05c0-1.62.396-4.272 2.514-4.272 2.119 0 2.468 1.62 2.468 3.521v11.432A61.886 61.886 0 0 0 47.1 45.681V23.638c0-4.39-3.12-8.78-9.453-8.78A10.28 10.28 0 0 0 28.683 20V7.253C38.438 12.16 48.216 18.17 51.941 20.94c-2.375 3.427-2.165 6.596-2.165 10.258 0 4.39-.326 8.052 3.911 12.324s11.734 4.014 11.734 4.014 7.52.258 11.734-4.014c4.237-4.272 3.888-7.934 3.888-12.324 0-4.343.349-8.028-3.888-12.277ZM15.18 7.512V22.37C3.842 9.577 6.124 4.53 6.985 3.803c3.143-2.676 8.73-1.878 14.993.493L15.18 7.512Zm52.732 28.286c0 .845-.42 2.934-2.491 2.934-2.072 0-2.491-2.089-2.491-2.934v-9.484c0-2.042 1.7-2.558 2.49-2.558.792 0 2.492.493 2.492 2.558v9.484Z" fill="#737373"/></svg>
